X:7692
T:Tripper's
R:Jig
C:Trad.-The Rankin Family, Ashley MacIsaac,-arr. Sandy MacIntyre
O:England
M:6/8
L:1/8
K:D
PlayingMod e:AA,B B,CC, BB,||:ABd e2A|g2d e2A|ABd e2f|g2 (ed)BG|
ABd e2A|egd e2A|BAB GBd|g2 (ed )BG:|||
|:ABA a3|gfe a3|ABA a2f|g2 (ed )BG|
ABA a3|gfe a3|g2 (ed )Bd|ege dBG:|||
|:ABA c2A|d2B c2A|ABA c2A|d (cB)A G|
ABA c2A|d2B c2A|BAB GBd|g2 (ed )BG:|


